;FLAVOR:Marlin
;TIME:3605.51
;Filament used:2.2998m
;Material Diameter:1.75
;Material Density:1.24
;Filament Cost:0.137185
;Filament Weight:6.859255
;Filament Length:2.299796
;Layer height:0.1
;MINX:2.542
;MINY:1.942
;MINZ:0.1
;MAXX:143.706
;MAXY:106.5
;MAXZ:20.401
;OuterWall Time:1020.6
;InnerWall Time:568.487
;Skin Time:504.988
;Support Time:119.263
;SkirtBrim Time:9.05373
;Infill Time:289.14
;Support Infills Time:0
;Combing Time:255.197
;Retraction Time:812.096
;PrimeTower Time:26.6826
;;;;;;;;;;;;;;;;;;;;;;;;;;;;;;;;;;;;;;;;;;;;;;;;;;;;;;;;;;;;;;;;
;Creality Print GCode Generated by CXEngine
;CRSLICE_GIT_HASH:58ee74d
;Creality Print Version : V4.3.8.6984
;CXEngine Release Time:2023-12-04 18:16:29
;Gcode Generated Time:2024-04-19 20:38:19
;----------Machine Config--------------
;Machine Name:Ender-3 V3 SE
;Machine Height:250
;Machine Width:220
;Machine Depth:220
;Material Type:PETG
;Material Name:CR-PETG_1.75
;Number of Extruders:1
;ExtruderParams[0] Nozzle Diameter:1000
;----------Profile Config---------------
;Wall Thickness:0.8
;Top/Bottom Thickness:0.8
;Out Wall Line Width:0.42
;Inner Wall Line Width:0.45
;Inital Height:100
;Wall Line Count:2
;Infill Line Distance:8
;Infill Pattern:grid
;Infill Sparse Density:10
;Infill Wipe Distance:0
;Print Temperature:250
;Bed Temperature:70
;Support Enable:false
;Support Density:15
;Support Angle:60
;Adhesion Type:autobrim
;machine is belt:false
;machine belt offset:10
;machine belt offset Y:0
;Raft Base Line Spacing:1.6
;Wait Heatup Sync:true
;Enable Ironing:false
;Material Type:PETG
;Max volumetric speed:9
;Preview Img Type:png
;Screen Size:Sermoon D3
;----------Shell Config----------------
;Outer Wall Wipe Distance:2000
;Outer Inset First:false
;Infill Before Walls:false
;Infill Overlap:0.09
;Fill Gaps Between Walls:everywhere
;Minimum Infill Area:30
;Top Surface Skin Layer:0
;Top Layers:8
;Z Seam Alignment:sharpest_corner
;Seam Corner Preference:z_seam_corner_inner
;Z Seam X:110
;Z Seam Y:220
;Horizontal Expansion:0
;Top/Bottom Pattern:zigzag
;Ironing Pattern:zigzag
;Vase Model:false
;----------Support Config----------------
;Support Type:everywhere
;Support Pattern:zigzag
;Support Infill Layer Thickness:0.2
;Minimum Support Area:1
;Enable Support Roof:true
;Support Roof Thickness:0.8
;Support Roof Pattern:lines
;Connect Support Lines:0
;Connect Support ZigZags:1
;Minimum Support X/Y Distance:0.2
;Support Line Distance:2.67
; ---------PrintSpeed & Travel----------
;Enable Print Cool:true
;Avoid Printed Parts Traveling:true
;Enable Retraction:true
;Retraction Distance:0.5
;Retraction Speed:40
;Retraction Prime Speed:40
;Maximum Retraction Count:100
;Minimum Extrusion Distance Window:0.8
;Z Hop When Retracted:true
;Z Hop Height:0.4
;Retract Before Outer Wall:true

;Outer Wall Speed:60
;Inner Wall Speed:90
;Infill Speed:180
;Top/Bottom Speed:50
;Travel Speed:150
;Initial Layer Speed:30
;Skirt/Brim Speed:25
;Prime Tower Speed:60
;Outer Wall Acceleration:1000
;Inner Wall Acceleration:2000
;Infill Acceleration:2500
;Top/Bottom Acceleration:2500
;Travel Acceleration:2500
;Initial Layer Print Acceleration:500
;Initial Layer Travel Acceleration:500
;Skirt/Brim Acceleration:500
;Combing Mode:off
; --------SpecialModel&Mesh Fixes--------
;Union Overlapping Volum:true
;Remove All Holes:false
;Maximum Travel Resolution:0.25
;Maximum Deviation:0.05
;Maximum Model Angle:0.872665
;IS Mold Print:false
;Make Overhang Printable:false
;Enable Coasting:false
;Coasting Volumes:0.064
;Coasting Speed:0.9
;Raft AirGap:0.25
;Layer0 ZOverLap:0.13
;Adaptive Layers:0
;---------------------End of Head--------------------------
M140 S70
M105
M190 S70
M104 S250
M82 ;absolute extrusion mode
M220 S100 ;Reset Feedrate
M221 S100 ;Reset Flowrate

G28 ;Home

G92 E0 ;Reset Extruder
G1 Z2.0 F3000 ;Move Z Axis up
G1 X-2.1 Y20 Z0.28 F5000.0 ;Move to start position
M109 S250.000000
G1 X-2.1 Y145.0 Z0.28 F1500.0 E15 ;Draw the first line
G1 X-2.4 Y145.0 Z0.28 F5000.0 ;Move to side a little
G1 X-2.4 Y20 Z0.28 F1500.0 E30 ;Draw the second line
G92 E0  ;Reset Extruder
G1 E-1.0000 F1800 ;Retract a bit
G1 Z2.0 F3000 ;Move Z Axis up
G1 E0.0000 F1800 

M900 K0.055000
G92 E0
G92 E0
G1 F2400 E-0.5
;LAYER_COUNT:178

;LAYER:0
M106 S0
M204 S500
;;retract;;
G1 F2400 E0
G1 F2400 E-0.5
G0 F4800 X2.542 Y1.942 Z20.401
G0 X105.11 Y80.294 Z0.5
;TYPE:SKIRT
G1 F600 Z0.1
G1 F2400 E0
G1 F1500 X104.902 Y80.644 E0.00782
G1 X104.765 Y81.028 E0.01565
G1 X104.706 Y81.431 E0.02347
G1 X104.325 Y89.512 E0.17886
G1 X104.343 Y89.9 E0.18633
G1 X104.435 Y90.279 E0.19382
G1 X104.935 Y90.314 E0.20344
G1 X104.811 Y89.897 E0.2118
G1 X104.787 Y89.534 E0.21879
G1 X105.168 Y81.453 E0.37418
G1 X105.224 Y81.098 E0.38108
G1 X105.358 Y80.765 E0.38798
G1 X105.562 Y80.469 E0.39488
G1 X105.826 Y80.226 E0.40177
G1 X106.137 Y80.047 E0.40866
G1 X106.48 Y79.941 E0.41556
G1 X106.859 Y79.914 E0.42286
G1 X115.826 Y80.337 E0.59529
G1 X116.181 Y80.393 E0.60219
G1 X116.514 Y80.527 E0.60908
G1 X116.81 Y80.731 E0.61599
G1 X117.053 Y80.995 E0.62288
G1 X117.232 Y81.306 E0.62977
G1 X117.338 Y81.649 E0.63667
G1 X117.365 Y82.028 E0.64397
G1 X116.985 Y90.081 E0.79882
G1 X116.929 Y90.436 E0.80572
G1 X116.765 Y90.842 E0.81413
G1 X117.265 Y90.851 E0.82374
G1 X117.388 Y90.506 E0.83077
G1 X117.447 Y90.103 E0.8386
G1 X117.827 Y82.05 E0.99345
G1 X117.806 Y81.641 E1.00131
G1 X117.706 Y81.247 E1.00912
G1 X117.531 Y80.879 E1.01695
G1 X117.287 Y80.552 E1.02479
G1 X116.985 Y80.279 E1.03261
G1 X116.635 Y80.071 E1.04043
G1 X116.251 Y79.934 E1.04826
G1 X115.848 Y79.875 E1.05608
G1 X106.881 Y79.452 E1.22851
G1 X106.472 Y79.473 E1.23637
G1 X106.077 Y79.573 E1.2442
G1 X105.71 Y79.748 E1.25201
G1 X105.383 Y79.992 E1.25985
G1 X105.11 Y80.294 E1.26767
G0 F4800 X105.813 Y80.902
G1 F1500 X105.683 Y81.176 E1.27349
G1 X105.629 Y81.475 E1.27933
G1 X105.248 Y89.556 E1.43472
G1 X105.269 Y89.836 E1.44011
G1 X105.367 Y90.123 E1.44594
G1 X105.522 Y90.354 E1.45128
G1 X106.203 Y90.4 E1.46439
G1 X108.856 Y90.552 E1.51543
G1 X111.512 Y90.677 E1.5665
G1 X114.167 Y90.774 E1.61753
G1 X116.174 Y90.827 E1.6561
G1 X116.34 Y90.632 E1.66102
G1 X116.47 Y90.358 E1.66684
G1 X116.524 Y90.059 E1.67268
G1 X116.904 Y82.006 E1.82753
G1 X116.88 Y81.715 E1.83314
G1 X116.78 Y81.429 E1.83896
G1 X116.608 Y81.179 E1.84479
G1 X116.377 Y80.982 E1.85062
G1 X116.103 Y80.852 E1.85644
G1 X115.804 Y80.798 E1.86228
G1 X106.837 Y80.375 E2.03471
G1 X106.546 Y80.399 E2.04031
G1 X106.26 Y80.499 E2.04613
G1 X106.01 Y80.671 E2.05196
G1 X105.813 Y80.902 E2.05779
G0 F4800 X106.099 Y81.335
G1 F1500 X105.705 Y89.681 E2.21828
G1 X105.832 Y90.057 E2.2259
G1 X106.203 Y90.293 E2.23435
G1 X108.869 Y90.445 E2.28564
G1 X111.525 Y90.571 E2.33671
G1 X114.17 Y90.668 E2.38755
G1 X115.449 Y90.7 E2.41213
G1 X115.823 Y90.571 E2.41972
G1 X116.054 Y90.199 E2.42814
G1 X116.447 Y81.878 E2.58814
G1 X116.316 Y81.499 E2.59584
G1 X115.944 Y81.268 E2.60425
G1 X106.709 Y80.832 E2.78183
G1 X106.33 Y80.963 E2.78954
G1 X106.099 Y81.335 E2.79795
G0 F4800 X106.783 Y81.529
G1 F1500 X106.402 Y89.61 E2.95334
G1 X108.902 Y89.753 E3.00144
G1 X111.55 Y89.878 E3.05235
G1 X114.188 Y89.975 E3.10306
G1 X115.37 Y90.005 E3.12577
G1 X115.75 Y81.952 E3.28062
G1 X106.783 Y81.529 E3.45305
G0 F4800 X106.557 Y81.421
G1 F1500 X106.168 Y89.663 E3.61154
G1 X106.293 Y89.836 E3.61563
G1 X108.889 Y89.984 E3.66558
G1 X111.539 Y90.109 E3.71654
G1 X114.18 Y90.206 E3.7673
G1 X115.428 Y90.238 E3.79128
G1 X115.596 Y90.113 E3.7953
G1 X115.984 Y81.896 E3.9533
G1 X115.858 Y81.726 E3.95737
G1 X106.727 Y81.295 E4.13295
G1 X106.557 Y81.421 E4.13701
;;retract move;;
G1 F3840 X106.463 Y83.418 E3.66201
G1 F2400 E3.63701
G0 F4800 X106.831 Y81.583 Z0.5
;TYPE:SUPPORT
G1 F600 Z0.1
G1 F2400 E4.13701
G1 F1800 X106.456 Y89.562 E4.25976
G1 X108.917 Y89.702 E4.29763
G1 X111.572 Y89.827 E4.33848
G1 X114.382 Y89.929 E4.38168
G1 X115.321 Y89.951 E4.39612
G1 X115.696 Y82 E4.51843
G1 X106.831 Y81.583 E4.6548
G0 F4800 X107.271 Y82.067
G1 F1800 X106.939 Y89.126 E4.76339
G1 X108.927 Y89.239 E4.79399
G1 X111.572 Y89.364 E4.83468
G1 X114.39 Y89.466 E4.87801
G1 X114.88 Y89.477 E4.88554
G1 X115.212 Y82.44 E4.99379
G1 X107.271 Y82.067 E5.11595
G0 F4800 X107.711 Y82.551
G1 F1800 X107.422 Y88.689 E5.21037
G1 X108.942 Y88.776 E5.23376
G1 X111.575 Y88.901 E5.27427
G1 X114.438 Y89.002 E5.31829
G1 X114.728 Y82.88 E5.41247
G1 X107.711 Y82.551 E5.52041
G0 F4800 X108.151 Y83.035
G1 F1800 X107.906 Y88.252 E5.60066
G1 X108.96 Y88.313 E5.61689
G1 X111.575 Y88.438 E5.65712
G1 X113.998 Y88.524 E5.69437
G1 X114.244 Y83.32 E5.77443
G1 X108.151 Y83.035 E5.86815
;;retract move;;
G1 F3840 X108.058 Y85.033 E5.39315
G1 F2400 E5.36815
G0 F4800 X110.362 Y86.024 Z0.5
G1 F600 Z0.1
G1 F2400 E5.86815
G1 F521.1 X111.761 Y86.09 E5.89294
G1 F520.1 X111.787 Y85.557 E5.9024
G1 F521.1 X110.388 Y85.492 E5.92718
G1 X110.362 Y86.024 E5.9366
G0 F4800 X109.841 Y86.498
G1 F1800 X111.603 Y86.586 E5.96371
G1 X112.235 Y86.608 E5.97343
G1 X112.308 Y85.083 E5.99689
G1 X109.914 Y84.971 E6.03372
G1 X109.841 Y86.498 E6.05721
G0 F4800 X109.357 Y86.938
G1 F1800 X111.593 Y87.049 E6.09161
G1 X112.676 Y87.087 E6.10826
G1 X112.792 Y84.642 E6.14587
G1 X109.473 Y84.487 E6.19693
G1 X109.357 Y86.938 E6.23463
G0 F4800 X108.873 Y87.378
G1 F1800 X111.584 Y87.512 E6.27634
G1 X113.117 Y87.566 E6.29991
G1 X113.276 Y84.201 E6.35168
G1 X109.032 Y84.003 E6.41696
G1 X108.873 Y87.378 E6.46888
G0 F4800 X108.39 Y87.815
G1 F1800 X108.977 Y87.85 E6.47792
G1 X111.578 Y87.975 E6.51793
G1 X113.557 Y88.045 E6.54836
G1 X113.76 Y83.76 E6.61428
G1 X108.591 Y83.519 E6.69379
G1 X108.39 Y87.815 E6.75988
;;retract move;;
G1 F3840 X108.977 Y87.85 E6.52238
G1 X110.387 Y87.917 E6.28488
G1 F2400 E6.25988
G0 F4800 X107.24 Y88.493 Z0.5
;MESH:0_1
G0 X81.317 Y93.237
;TYPE:WALL-OUTER
G1 F600 Z0.1
G1 F2400 E6.75988
G1 F1704.1 X81.438 Y93.064 E6.76395
G1 F1800 X82.275 Y88.414 E6.85016
G1 F1803.9 X82.217 Y88.229 E6.85369
G1 F1736.1 X77.263 Y87.686 E6.94797
G1 F1750.7 X77.355 Y87.181 E6.9576
G1 F1938.5 X79.776 Y87.551 E6.9991
G1 F2278.4 X82.125 Y87.894 E7.03333
G1 F2223.5 X82.399 Y87.989 E7.03761
G1 F1877.2 X82.764 Y88.064 E7.04413
G1 F1800 X85.024 Y88.409 E7.08585
G1 X87.634 Y88.78 E7.13395
G1 X90.272 Y89.126 E7.1825
G1 X92.92 Y89.447 E7.23117
G1 X95.571 Y89.74 E7.27984
G1 X98.221 Y90.004 E7.32843
G1 X100.874 Y90.242 E7.37704
G1 X103.53 Y90.45 E7.42565
G1 X106.187 Y90.631 E7.47425
G1 X108.841 Y90.783 E7.52276
G1 X111.502 Y90.908 E7.57137
G1 X114.159 Y91.005 E7.61988
G1 X116.816 Y91.075 E7.66838
G1 X119.477 Y91.117 E7.71694
G1 X122.137 Y91.131 E7.76548
G1 X124.801 Y91.117 E7.81409
G1 X127.459 Y91.076 E7.8626
G1 X130.12 Y91.006 E7.91117
G1 X132.778 Y90.91 E7.95971
G1 X135.439 Y90.784 E8.00832
G1 X137.719 Y90.653 E8.04999
G1 F1911.7 X138.09 Y90.605 E8.05642
G1 F2259.8 X138.319 Y90.549 E8.05984
G1 X140.744 Y90.425 E8.09514
G1 F1929.5 X141.967 Y90.352 E8.11599
G1 F1743.4 X143.191 Y90.279 E8.13909
G1 F1663.2 X143.235 Y90.798 E8.14938
G1 X142.962 Y90.797 E8.15477
G1 F1704.1 X140.612 Y90.835 E8.20007
G1 F1788.4 X138.262 Y90.874 E8.24324
G1 F1815.7 X138.177 Y91.052 E8.2468
G1 F1800 X138.573 Y95.758 E8.33298
G1 F1819.7 X138.639 Y95.893 E8.33569
G1 F2013.6 X138.817 Y95.925 E8.33864
G1 F2100 X139.701 Y95.795 E8.35262
G1 F1890 X140.586 Y95.665 E8.36816
G1 F1714.6 X141.47 Y95.534 E8.38528
G1 F1572 X142.355 Y95.404 E8.40397
G1 F1451.3 X143.239 Y95.273 E8.42419
G1 F1395.3 X143.558 Y95.218 E8.43182
G1 X143.611 Y95.839 E8.44649
G1 X143.312 Y95.863 E8.45355
G1 F1456.4 X142.256 Y95.97 E8.47748
G1 F1596.2 X141.2 Y96.077 E8.49933
G1 F1788.4 X140.021 Y96.188 E8.52108
G1 F2058.4 X138.841 Y96.299 E8.53999
G1 F2013.6 X138.485 Y96.284 E8.5458
G1 F1819.7 X135.776 Y96.437 E8.59477
G1 F1800 X133.054 Y96.565 E8.6445
G1 X130.332 Y96.665 E8.6942
G1 X127.611 Y96.737 E8.74387
G1 X124.889 Y96.779 E8.79354
G1 X122.169 Y96.794 E8.84318
G1 X119.449 Y96.779 E8.89281
G1 X116.671 Y96.735 E8.94351
G1 X113.967 Y96.664 E8.99287
G1 X111.296 Y96.566 E9.04164
G1 X108.577 Y96.438 E9.09131
G1 X105.863 Y96.282 E9.14091
G1 X103.147 Y96.097 E9.19059
G1 X100.439 Y95.885 E9.24015
G1 X97.724 Y95.641 E9.28989
G1 X95.022 Y95.372 E9.33944
G1 X92.317 Y95.075 E9.3891
G1 X89.535 Y94.738 E9.44023
G1 X86.864 Y94.386 E9.48939
G1 X84.167 Y94.004 E9.5391
G1 X81.856 Y93.649 E9.58176
G1 F1852.1 X81.459 Y93.602 E9.58885
G1 F2048.3 X81.184 Y93.586 E9.59327
G1 X79.979 Y93.359 E9.61293
G1 F1784.5 X78.774 Y93.132 E9.6355
G1 F1599.2 X77.741 Y92.926 E9.65713
G1 F1464.1 X76.707 Y92.72 E9.68079
G1 F1402.4 X76.413 Y92.669 E9.68777
G1 X76.524 Y92.056 E9.70236
G1 X76.836 Y92.142 E9.70994
G1 F1451.3 X79.076 Y92.689 E9.76213
G1 F1560.2 X81.317 Y93.237 E9.8107
G0 F4800 X81.905 Y93.172
;TYPE:WALL-INNER
G1 F1800 X82.738 Y88.544 E9.90747
G1 X84.951 Y88.881 E9.95354
G1 X87.566 Y89.253 E10.00789
G1 X90.21 Y89.6 E10.06277
G1 X92.862 Y89.921 E10.11775
G1 X95.518 Y90.215 E10.17274
G1 X98.173 Y90.48 E10.22765
G1 X100.831 Y90.717 E10.28257
G1 X103.493 Y90.926 E10.33752
G1 X106.155 Y91.108 E10.39243
G1 X108.814 Y91.26 E10.44725
G1 X111.479 Y91.386 E10.50215
G1 X114.142 Y91.483 E10.55699
G1 X116.804 Y91.553 E10.61179
G1 X119.469 Y91.595 E10.66665
G1 X122.135 Y91.609 E10.72151
G1 X124.803 Y91.595 E10.77642
G1 X127.466 Y91.554 E10.83123
G1 X130.132 Y91.484 E10.88611
G1 X132.795 Y91.388 E10.94095
G1 X135.459 Y91.262 E10.99584
G1 X137.704 Y91.132 E11.04212
G1 X138.098 Y95.823 E11.139
G1 X135.749 Y95.959 E11.18742
G1 X133.032 Y96.087 E11.2434
G1 X130.315 Y96.187 E11.29935
G1 X127.599 Y96.259 E11.35526
G1 X124.881 Y96.301 E11.41121
G1 X122.167 Y96.316 E11.46706
G1 X119.451 Y96.301 E11.52296
G1 X116.684 Y96.257 E11.57991
G1 X114.026 Y96.187 E11.63463
G1 X111.314 Y96.088 E11.69048
G1 X108.6 Y95.96 E11.74639
G1 X105.836 Y95.801 E11.80337
G1 X103.18 Y95.62 E11.85815
G1 X100.476 Y95.408 E11.91397
G1 X97.735 Y95.162 E11.97061
G1 X95.069 Y94.896 E12.02575
G1 X92.37 Y94.6 E12.08162
G1 X89.704 Y94.277 E12.13689
G1 X86.904 Y93.909 E12.19501
G1 X84.235 Y93.53 E12.25049
G1 X81.905 Y93.172 E12.299
;;retract move;;
G1 F3840 X82.259 Y91.204 E11.824
G1 F2400 E11.799
G0 F4800 X84.857 Y89.335 Z0.5
G0 X84.918 Y89.291
;TYPE:SKIN
G1 F600 Z0.1
G1 F2400 E12.299
G1 F1800 X83.071 Y89.01 E12.33489
G1 X82.38 Y92.832 E12.40949
G1 X84.373 Y93.136 E12.44821
G1 X86.959 Y93.505 E12.49839
G1 X89.723 Y93.868 E12.55193
G1 X92.415 Y94.193 E12.60402
G1 X95.046 Y94.484 E12.65486
G1 X97.795 Y94.758 E12.70792
G1 X100.509 Y95.001 E12.76026
G1 X103.207 Y95.212 E12.81224
G1 X105.918 Y95.397 E12.86443
G1 X108.621 Y95.552 E12.91644
G1 X111.327 Y95.679 E12.96847
G1 X113.983 Y95.777 E13.01952
G1 X116.704 Y95.849 E13.0718
G1 X119.407 Y95.891 E13.12373
G1 X122.165 Y95.908 E13.17671
G1 X124.874 Y95.893 E13.22874
G1 X127.585 Y95.852 E13.28082
G1 X130.294 Y95.78 E13.33287
G1 X133 Y95.68 E13.38488
G1 X135.66 Y95.554 E13.43603
G1 X137.656 Y95.439 E13.47443
G1 X137.33 Y91.561 E13.54918
G1 X135.464 Y91.669 E13.58509
G1 X132.802 Y91.796 E13.63627
G1 X130.134 Y91.891 E13.68755
G1 X127.482 Y91.962 E13.73851
G1 X124.797 Y92.003 E13.79009
G1 X122.142 Y92.017 E13.84109
G1 X119.45 Y92.003 E13.89279
G1 X116.785 Y91.961 E13.94399
G1 X114.115 Y91.891 E13.99529
G1 X111.445 Y91.793 E14.04661
G1 X108.782 Y91.668 E14.09782
G1 X106.118 Y91.515 E14.14907
G1 X103.448 Y91.333 E14.20047
G1 X100.781 Y91.124 E14.25186
G1 X98.136 Y90.887 E14.30287
G1 X95.445 Y90.618 E14.35481
G1 X92.805 Y90.327 E14.40583
G1 X90.188 Y90.01 E14.45646
G1 X87.495 Y89.656 E14.50863
G1 X84.918 Y89.291 E14.55863
;;retract move;;
G1 F3840 X86.898 Y89.571 E14.08363
G1 F2400 E14.05863
G0 F4800 X84.263 Y91.386 Z0.5
G0 X82.678 Y92.478
G1 F600 Z0.1
G1 F2400 E14.55863
G1 F1800 X82.872 Y92.673 E14.56391
G1 X82.778 Y91.925
G1 X83.643 Y92.79 E14.58741
G1 X84.412 Y92.906
G1 X82.877 Y91.371 E14.6291
G1 X82.978 Y90.818
G1 X85.175 Y93.015 E14.68878
G1 X85.936 Y93.123
G1 X83.077 Y90.265 E14.76643
G1 X83.178 Y89.712
G1 X86.699 Y93.232 E14.86206
G1 X87.454 Y93.335
G1 X83.415 Y89.295 E14.97179
G1 X84.186 Y89.412
G1 X88.207 Y93.434 E15.08103
G1 X88.96 Y93.533
G1 X84.956 Y89.529 E15.18979
G1 X85.716 Y89.637
G1 X89.712 Y93.632 E15.29832
G1 X90.455 Y93.722
G1 X86.478 Y89.745 E15.40635
G1 X87.239 Y89.852
